X:1
T:Pander Dance -- Jig
R:jig
B:Ryan's Mammoth Collection
N: 91 476
Z: Contributed by Ray Davies,  ray:davies99.freeserve.co.uk
M:6/8
L:1/8
K:G
uD|\
GAB BdB | AGG G2d | dFF GGA | ABG FED |
GAB BdB | AGG G2d | FEF DEF | AGG G2:|
|:ud|\
gfg gfd | cBc def | gfg agd | cBc def |
gag gfg | ece efg | dec BcB | AGG G2:|
